X: 789
T: Aisling's Wedding
R: reel
M: 4/4
K: Amajor
|:c3A BAFA|AAcA BAFB|ABcA ceed|cBBA B2AB|
c3A BAFA|AAcA BAFB|ABcA ceec|BAGB A3B:|
|:ceea f2ec|e2cA BAFA|ceea f2ec|ecBA B2AB|
ceea faef|eAcA BAFB|ABcA ceec|BAGB A3B:|

